X: 1
T: Brian O'Laimhnai
M: 4/4
L: 1/8
R: reel
K: Dmaj
|:(3DDD FA dAFA|DFAF GFEF|(3DDD FA dcde|fedB AFEF:|
|:(3BBB AF ABAF|(3BBB AF AFEF|(3BBB AF ABde|fedB AFEF:|
